!!!!SEGMENT: pl-kk--kk-i-337_gorczycki-grzegorz-gerwazy--ave-virgo-speciosa.krn
!!!cenid: 17xx:1937
!!!COM: Gorczycki, Grzegorz Gerwazy
!!!COM-rismid: pe30009207
!!!CDT: ~1666-1734/04/30
!!!CNT: Polish
!!!OTL: Ave virgo speciosa
!!!PDT:
!!!AGN: Sacred
!!!SMS-siglum: PL-Kk
!!!SMS-shelfmark: Kk.I.337
!!!SMS-shelfwork: W
!!!SMS-variant:
!!!SMS-altvar:
!!!NIFC-rismid: 1001143664
!!!URL-scan: http://repozytorium.nifc.pl/skany/pl-kk-nut--i-337
!!!ONB-nifc:
**kern	**text	**kern	**text	**kern	**text	**kern	**text
*part4	*part4	*part3	*part3	*part2	*part2	*part1	*part1
*staff4	*staff4	*staff3	*staff3	*staff2	*staff2	*staff1	*staff1
*I"Baſso a4	*	*I"& a 4	*	*I"Alto a4	*	*I"Canto a 4	*
*I'B	*	*I'T	*	*I'A.	*	*I'C.	*
*clefF4	*	*clefC4	*	*clefC3	*	*clefC1	*
*k[b-]	*	*k[b-]	*	*k[b-]	*	*k[b-]	*
*M4/4	*	*M4/4	*	*M4/4	*	*M4/4	*
*met(c)	*	*met(c)	*	*met(c)	*	*met(c)	*
=1	=1	=1	=1	=1	=1	=1	=1
00r	.	00r	.	00r	.	2r	.
.	.	.	.	.	.	1f	A-
=2	=2	=2	=2	=2	=2	=2-	=2
.	.	.	.	.	.	.	.
.	.	.	.	.	.	2g/	-ue
=3	=3	=3	=3	=3	=3	=3	=3
.	.	.	.	.	.	1a	Vir-
=4	=4	=4	=4	=4	=4	=4-	=4
.	.	.	.	.	.	2f/	-go
.	.	.	.	.	.	1b-X	Spe-
=5	=5	=5	=5	=5	=5	=5-	=5
00r	.	00r	.	0r	.	.	.
*	*	*	*	*	*	*2\right	*
.	.	.	.	.	.	2a\	-ci-
=6	=6	=6	=6	=6	=6	=6-	=6
.	.	.	.	.	.	1g	-o-
=7	=7	=7	=7	=7-	=7	=7	=7
.	.	.	.	2r	.	2f/	-sa
.	.	.	.	1c	A-	1cc	So-
=8	=8	=8	=8	=8-	=8	=8-	=8
.	.	.	.	.	.	.	.
*	*	*	*	*2\right	*	*	*
.	.	.	.	2d\	-ue	2b#X\	-le
=9	=9	=9	=9	=9	=9	=9-	=9
00r	.	00r	.	1e	Vir-	1cc	stel-
=10	=10	=10	=10	=10-	=10	=10	=10
.	.	.	.	2c/	-go	2g\	-lis
.	.	.	.	1f	Spe-	2a\	cla-
=11	=11	=11	=11	=11-	=11	=11-	=11
.	.	.	.	.	.	2b#X\	.
.	.	.	.	2e\	-ci-	1cc	.
=12	=12	=12	=12	=12	=12	=12-	=12
.	.	.	.	1d	-o-	.	.
.	.	.	.	.	.	2b#X\	-ri-
=13	=13	=13-	=13	=13-	=13	=13	=13
00r	.	2r	.	2c,</	-sa	2cc\	-or
*	*	*2\right	*	*	*	*	*
!	!	!	!	!	!	!LO:LB:g=original	!
.	.	1F	A-	1f	so-	2.a\	So-
=14	=14	=14-	=14	=14-	=14	=14-	=14
.	.	.	.	.	.	.	.
.	.	.	.	.	.	4a\	-le
.	.	2G/	-ue	2e\	-le	4b-X\	stel-
.	.	.	.	.	.	4g/	-lis
=15	=15	=15	=15	=15	=15	=15	=15
.	.	1A	Vir-	1f	stel-	2.cc\	cla-
.	.	.	.	.	.	4b-\	.
=16	=16	=16-	=16	=16-	=16	=16-	=16
.	.	2F/	-go	2c\	-lis	4a\	.
.	.	.	.	.	.	4g\	.
.	.	1B-	Spe-	2d\	cla-	4f/	.
.	.	.	.	.	.	4d/	.
=17	=17	=17-	=17	=17	=17	=17	=17
0r	.	.	.	2e\	.	2g\	.
.	.	2A\	-ci-	1f	.	2a\	.
=18	=18	=18	=18	=18-	=18	=18-	=18
.	.	1G	-o-	.	.	2b-\	.
.	.	.	.	2e\	-ri-	2g\	-ri-
=19	=19	=19-	=19	=19	=19	=19-	=19
2r	.	2F,</	-sa	2f\	-or	2a\	-or
!	!	!	!	!LO:LB:g=original	!	!	!
1C	A-	1c	So-	2.e\	stel-	2rf	.
=20-	=20	=20-	=20	=20-	=20	=20	=20
.	.	.	.	.	.	1ra	.
.	.	.	.	4e\	-lis	.	.
2D/	-ue	2B#X\	-le	4f\	so-	.	.
.	.	.	.	4d\	-le	.	.
=21	=21	=21	=21	=21	=21	=21-	=21
1E	Vir-	1c	stel-	2.g\	cla-	2rf	.
.	.	.	.	.	.	1cc	so-
.	.	.	.	4f\	.	.	.
=22-	=22	=22-	=22	=22-	=22	=22-	=22
2C/	-go	2G/	-lis	4e\	.	.	.
.	.	.	.	4d\	.	.	.
1F	Spe-	2A/	cla-	4c/	.	2cc\	-le
.	.	.	.	4A/	.	.	.
=23-	=23	=23	=23	=23	=23	=23	=23
.	.	2B#X\	.	2d\	.	2b-\	stel-
*2\right	*	*	*	*	*	*	*
2E\	-ci-	1c	.	2e\	.	2g/	-lis
=24-	=24	=24-	=24	=24-	=24	=24	=24
1D	-o-	.	.	2f\	.	4a\	cla-
.	.	.	.	.	.	4g\	.
.	.	2B#X\	-ri-	2d\	-ri-	4a\	.
.	.	.	.	.	.	4f/	.
!	!	!	!	!	!	!LO:LB:g=original	!
=25	=25	=25	=25	=25	=25	=25	=25
2C,</	-sa	1c	-or	2e\	-or	2cc\	.
1F	So-	.	.	2f\	a-	2a\	.
!	!	!LO:LB:g=original	!	!	!	!	!
=26-	=26	=26	=26	=26-	=26	=26	=26
.	.	1rA	.	1g	.	2b-\	.
2E\	-le	.	.	.	.	2g/	.
=27	=27	=27	=27	=27-	=27	=27	=27
1F	stel-	2rF	.	1f,<	-ue	2a\	.
.	.	2.A/	stel-	.	.	1cc	.
=28-	=28	=28-	=28	=28	=28	=28-	=28
2C/	-lis	.	.	2e\	Vir-	.	.
.	.	4A/	-lis	.	.	.	.
2D\	cla-	2d\	so-	2d\	-go	2a\	.
=29	=29	=29	=29	=29	=29	=29-	=29
2E\	.	2G/	-le	2g\	So-	2g/	-ri-
1F	.	2c\	cla-	2a\	-le	2f/	-or
=30-	=30	=30-	=30	=30-	=30	=30	=30
.	.	2B-\	.	2g\	cla-	1rdd	.
2E\	-ri-	2G/	-ri-	2g\	-ri-	.	.
!LO:LB:g=original	!	!	!	!LO:LB:g=original	!	!	!
=31	=31	=31	=31	=31	=31	=31-	=31
2F\	-or	2A,</	-or	2f\	-or	2rcc	.
1c	So-	1e	a-	2rf	.	1cc	a-
=32-	=32	=32-	=32	=32	=32	=32-	=32
.	.	.	.	2r	.	.	.
2B#X\	-le	2d\	.	2.g\	so-	2dd\	-ue
=33	=33	=33	=33	=33-	=33	=33	=33
2.c\	stel-	0c	-ue	.	.	1ee	Vir-
.	.	.	.	4f\	.	.	.
.	.	.	.	4e\	.	.	.
4B-\	.	.	.	4d\	.	.	.
=34	=34	=34-	=34	=34	=34	=34	=34
4A\	.	.	.	2e,<\	-le	2cc\	-go
4G\	.	.	.	.	.	.	.
4F\	.	.	.	2a,<\	.	1ff	spe-
4E\	.	.	.	.	.	.	.
=35	=35	=35	=35	=35	=35	=35-	=35
2D\	.	2r	.	2d\	stel-	.	.
4E\	.	1c	stel-	2g\	-lis	2ee\	-ci-
4F\	.	.	.	.	.	.	.
=36	=36	=36-	=36	=36-	=36	=36-	=36
2.G\	.	.	.	2g\	cla-	1dd	-o-
.	.	2B#X\	-lis	2d\	-ri-	.	.
4F\	.	.	.	.	.	.	.
=37-	=37	=37	=37	=37	=37	=37	=37
2E\	.	2c\	so-	2e,<\	-or	2cc\	-sa
2D/	.	2A/	-le	1f	a-	1ff	so-
=38	=38	=38-	=38	=38-	=38	=38-	=38
2C,</	-lis	2c\	cla-	.	.	.	.
4C/	cla-	2G/	-ri-	2g\	-ue	2ee\	-le
4BB-/	.	.	.	.	.	.	.
=39	=39	=39	=39	=39	=39	=39	=39
4AA/	.	0F	-or	1a	Vir-	1ff	stel-
4FF/	.	.	.	.	.	.	.
1F	.	.	.	.	.	.	.
=40-	=40	=40-	=40	=40-	=40	=40-	=40
.	.	.	.	2f\	-go	2cc\	-lis
2D/	.	.	.	1b-	spe-	2dd\	cla-
!	!	!	!	!	!	!LO:LB:g=original	!
=41	=41	=41	=41	=41-	=41	=41	=41
2C/	.	0r	.	.	.	2ee\	.
2D/	.	.	.	2a\	-ci-	1ff	.
=42-	=42	=42	=42	=42	=42	=42-	=42
2BB-/	.	.	.	1g	-o-	.	.
2C/	.	.	.	.	.	2ee\	-ri-
!LO:LB:g=original	!	!	!	!	!	!	!
=43	=43	=43-	=43	=43-	=43	=43	=43
4AA/	.	2r	.	1f	-sa	2ff\	-or
4FF/	.	.	.	.	.	.	.
1F	.	1c	a-	.	.	1cc	so-
!	!	!	!	!LO:LB:g=original	!	!	!
=44-	=44	=44-	=44	=44	=44	=44-	=44
.	.	.	.	2f\	So-	.	.
2D/	-ri-	2d\	-ue	2f\	-le	2b#X\	-le
=45-	=45	=45	=45	=45	=45	=45	=45
1C	-or	1e	Vir	4e\	cla-	1cc	stel-
.	.	.	.	4f\	.	.	.
.	.	.	.	1g	.	.	.
!	!	!LO:LB:g=original	!	!	!	!	!
=46	=46	=46	=46	=46-	=46	=46-	=46
0rE	.	2c,<\	go	.	.	2g\	-lis
.	.	1f	Spe-	2f\	.	2a\	cla-
=47	=47	=47-	=47	=47	=47	=47-	=47
.	.	.	.	1g	.	2b#X\	.
.	.	2e\	-ci-	.	.	1cc	.
=48	=48	=48	=48	=48-	=48	=48-	=48
1rE	.	1d	-o-	2f\	.	.	.
.	.	.	.	2f\	-ri-	2b#X\	-ri-
=49-	=49	=49	=49	=49	=49	=49-	=49
2r	.	2c\	-sa	2e,<\	-or	1cc	-or
1F\	a-	1f	ſo-	1a	cla-	.	.
=50-	=50	=50-	=50	=50-	=50	=50	=50
.	.	.	.	.	.	1r	.
2G\	-ue	2e,<\	-le	2g\	-ri-	.	.
=51	=51	=51-	=51	=51-	=51	=51-	=51
1A	Vir-	1f	stel-	1f	-or	2r	.
.	.	.	.	.	.	2.a\	so-
=52-	=52	=52	=52	=52	=52	=52-	=52
2F\	-go	2c\	-lis	2rf	.	.	.
.	.	.	.	.	.	4a\	-le
1B-X	spe-	2d\	cla	2f\	a-	2b-\	stel-
=53-	=53	=53	=53	=53-	=53	=53	=53
.	.	2e\	.	2g\	-ue	2g/	-lis
2A\	-ci-	1f	.	2a\	a-	2cc\	cla-
=54	=54	=54-	=54	=54-	=54	=54	=54
1G	-o-	.	.	2d\	-ue	4b-\	.
.	.	.	.	.	.	4a\	.
.	.	2e\	.	2r	.	4b-\	.
.	.	.	.	.	.	4cc\	.
=55-	=55	=55	=55	=55	=55	=55-	=55
2F,<\	-sa	2f\	.	1r	.	2a\	.
1c	so-	2e\	.	.	.	2g/	-ri-
!	!	!	!	!	!	!LO:LB:g=original	!
=56-	=56	=56-	=56	=56-	=56	=56-	=56
.	.	2.d\	.	2r	.	2f/	-or
2B#X\	-le	.	.	1g	stel-	2rf	.
.	.	4d\	ri-	.	.	.	.
=57	=57	=57-	=57	=57-	=57	=57	=57
4c\	stel-	0c	-or	.	.	1ra	.
4B-\	.	.	.	.	.	.	.
4A\	.	.	.	2g\	-lis	.	.
4G\	.	.	.	.	.	.	.
=58	=58	=58-	=58	=58	=58	=58-	=58
4F\	.	.	.	2a\	ſo-	(1cc	A-
4G\	.	.	.	.	.	.	.
4A\	.	.	.	2f\	-le	.	.
4F\	.	.	.	.	.	.	.
!	!	!	!	!LO:LB:g=original	!	!	!
=59	=59	=59	=59	=59-	=59	=59-	=59
4G\	.	2G/	so-	1d	cla-	1b#X)	.
4F\	.	.	.	.	.	.	.
4E\	.	2G/	-le	.	.	.	.
4D\	.	.	.	.	.	.	.
!LO:LB:g=original	!	!	!	!	!	!	!
=60	=60	=60-	=60	=60-	=60	=60-	=60
4C/	.	2c\	stel-	2e\	.	1cc	-ue
4D/	.	.	.	.	.	.	.
4E/	.	2c\	-lis	2e\	-ri-	.	.
4C/	.	.	.	.	.	.	.
!	!	!LO:LB:g=original	!	!	!	!	!
=61	=61	=61	=61	=61-	=61	=61	=61
1F	.	2A/	stel-	1f	-or	2rcc	.
.	.	2A/	-lis	.	.	1cc	a-
=62-	=62	=62-	=62	=62	=62	=62-	=62
2E\	-lis	2G/	cla-	2rf	.	.	.
2F\	cla-	2A/	-ri-	1f	A-	2a\	-ue
=63	=63	=63-	=63	=63-	=63	=63	=63
[2D/	-ri-	1F	-or	.	.	1dd	Ma-
2D/]	.	.	.	2d\	-ue	.	.
=64-	=64	=64	=64	=64	=64	=64-	=64
1C	-or	2rF	.	1g	Ma-	2g/	-ter
.	.	1c	a-	.	.	[2cc\	glo-
=65	=65	=65-	=65	=65-	=65	=65	=65
2rC	.	.	.	2e\	-ter	2cc\]	.
1F	A-	2A/	-ue	1f	glo-	2cc\	-ri-
=66-	=66	=66-	=66	=66-	=66	=66-	=66
.	.	1d	Ma-	.	.	4a\	-o-
.	.	.	.	.	.	4b-\	.
2D/	-ue	.	.	2f\	-ri-	4cc\	.
.	.	.	.	.	.	4a\	.
=67	=67	=67-	=67	=67	=67	=67	=67
1G	Ma-	1G	-ter	4d\	-o-	4b-\	.
.	.	.	.	4e\	.	4cc\	.
.	.	.	.	4f\	.	4b-\	.
.	.	.	.	4d\	.	4a\	.
=68-	=68	=68	=68	=68-	=68	=68	=68
2E\	-ter	2c\	glo-	2e\	.	2g/	-sa
1F	glo-	2c\	-ri-	2c/	-sa	1a	glo-
=69-	=69	=69-	=69	=69	=69	=69-	=69
.	.	4A\	-o-	2rf	.	.	.
.	.	4B-\	.	.	.	.	.
2F\	-ri-	4c\	.	1f	a-	2a\	-ri-
.	.	4A\	.	.	.	.	.
!	!	!	!	!	!	!LO:LB:g=original	!
=70	=70	=70	=70	=70-	=70	=70	=70
4D\	-o-	1B-	.	.	.	4f/	-o-
4E\	.	.	.	.	.	4g/	.
4F\	.	.	.	2d\	-ue	4a/	.
4D\	.	.	.	.	.	4f/	.
=71	=71	=71-	=71	=71	=71	=71-	=71
2E\	.	2G/	.	2g\	a-	2g\	.
1F	.	2c\	.	2c/	-ue	2a\	.
=72-	=72	=72-	=72	=72	=72	=72-	=72
.	.	2B-\	.	1rd	.	1g	-sa
2E\	.	2G/	.	.	.	.	.
!	!	!	!	!LO:LB:g=original	!	!	!
=73	=73	=73-	=73	=73	=73	=73	=73
2F\	-sa	1F	-sa	2r	.	2.a\	An-
2.D\	an-	.	.	1f	a-	.	.
.	.	.	.	.	.	4a\	-ge-
=74-	=74	=74	=74	=74-	=74	=74	=74
!	!	!	!	!	!	!LO:N:acc=#	!
.	.	0rA	.	.	.	2bn\	-lis
4D\	-ge-	.	.	.	.	.	.
2E\	-lis	.	.	1e	.	2g/	fe-
=75	=75	=75	=75	=75-	=75	=75-	=75
2C/	fe-	.	.	.	.	2.cc\	-li-
!LO:LB:g=original	!	!	!	!	!	!	!
2.F\	-li	.	.	1f	-ue	.	.
.	.	.	.	.	.	4b\	.
=76-	=76	=76	=76	=76-	=76	=76	=76
.	.	2rF	.	.	.	2a\	.
4E\	.	.	.	.	.	.	.
4D\	.	2.A/	an-	2ra	.	2.dd\	.
4E\	.	.	.	.	.	.	.
=77	=77	=77-	=77	=77	=77	=77-	=77
4F\	.	.	.	2r	.	.	.
4D\	.	4A/	-ge-	.	.	4cc\	.
!	!	!LO:TX:a:t=P:problem:# above	!	!	!	!	!
!	!	!LO:N:acc=#	!	!	!	!	!
2.G\	.	2Bn\	-lis	2.d\	An-	[2b#X\	.
!	!	!LO:LB:g=original	!	!	!	!	!
=78	=78	=78	=78	=78-	=78	=78	=78
!	!	!	!	!	!	!LO:N:xstem:cue	!
.	.	2G/	fe-	.	.	4b#\]	.
4F\	.	.	.	4d\	-ge-	4a\	.
4E\	.	2.c\	-li-	1e	-lis	2.g/	.
4F\	.	.	.	.	.	.	.
=79	=79	=79-	=79	=79-	=79	=79-	=79
4G\	.	.	.	.	.	.	.
4E\	.	4B-\	.	.	.	4g/	-ci-
1F	.	4A\	.	2c/	fe-	2a\	-or
.	.	4B-\	.	.	.	.	.
=80-	=80	=80	=80	=80	=80	=80	=80
.	.	4c\	.	2.f\	-li-	1f	fe-
.	.	4A\	.	.	.	.	.
2D/	.	2d\	.	.	.	.	.
.	.	.	.	8e\L	.	.	.
.	.	.	.	8d\J	.	.	.
!	!	!	!	!	!	!LO:LB:g=original	!
=81	=81	=81	=81	=81	=81	=81	=81
2.A\	.	2c#X\	.	2e\	.	1.a	-li-
.	.	1d	.	2f\	.	.	.
4A\	ci-	.	.	.	.	.	.
=82-	=82	=82-	=82	=82	=82	=82-	=82
2A,<\	-or	.	.	2.e\	-ci-	.	.
2A\	fe-	2c#X\	-ci-	.	.	2a\	-ci-
.	.	.	.	4e\	-or	.	.
=83	=83	=83	=83	=83	=83	=83-	=83
2B-\	.	2d\	-or	2d\	a-	1f	-or
2A\	.	2c\	fe-	1f	.	.	.
=84-	=84	=84	=84	=84-	=84	=84	=84
2G\	-li-	2B-X\	-li-	.	.	1ra	.
2G\	-ci-	2G/	-ci-	2e\	.	.	.
=85-	=85	=85-	=85	=85	=85	=85-	=85
1F	-or	0A	-or	1f	-ue	2r	.
.	.	.	.	.	.	1cc	Nos
=86	=86	=86-	=86	=86	=86	=86-	=86
!	!	!	!	!LO:TX:a:t=iedna	!	!	!
2rF	.	.	.	1r	.	.	.
1F	Nos	.	.	.	.	2f/	qui
!	!	!	!	!LO:LB:g=original	!	!	!
=87-	=87	=87	=87	=87	=87	=87	=87
.	.	0r	.	2rf	.	2cc\	Cae-
2BB-/	qui	.	.	1f	Nos	2dd\	-lo
=88	=88	=88	=88	=88-	=88	=88-	=88
2F\	Cae-	.	.	.	.	2cc\	e-
2G\	-lo	.	.	2B-/	qui	2b-\	-xu-
!LO:LB:g=original	!	!	!	!	!	!	!
=89-	=89	=89-	=89	=89	=89	=89	=89
2F\	e-	1c	Nos	2f\	Cae-	4a\	-la-
.	.	.	.	.	.	4b-\	.
2E\	-xu-	.	.	2g\	-lo	4cc\	.
.	.	.	.	.	.	4a\	.
=90	=90	=90-	=90	=90-	=90	=90-	=90
4D\	-la-	2F/	qui	2.f\	e-	2.dd\	.
4E\	.	.	.	.	.	.	.
4F\	.	2c\	Cae-	.	.	.	.
4D\	.	.	.	4e\	-xu-	4cc\	.
=91-	=91	=91	=91	=91	=91	=91	=91
2.G\	.	1d	-lo	4d\	-la-	4b-\	.
.	.	.	.	4e\	.	4a\	.
.	.	.	.	4f\	.	4b-\	.
4F\	.	.	.	4d\	.	4g\	.
=92	=92	=92-	=92	=92	=92	=92-	=92
4E\	.	2c\	e-	1g	.	2.cc\	.
4D\	.	.	.	.	.	.	.
4E\	.	2G/	-xu-	.	.	.	.
4C/	.	.	.	.	.	4b-\	.
=93-	=93	=93	=93	=93-	=93	=93	=93
2.F\	.	1A	-la-	0f	-mus	2a\	.
.	.	.	.	.	.	2f/	.
4E\	.	.	.	.	.	.	.
=94	=94	=94-	=94	=94-	=94	=94-	=94
4D\	.	1F	-mus	.	.	2b-\	.
4E\	.	.	.	.	.	.	.
1F	.	.	.	.	.	2a\	.
!	!	!LO:LB:g=original	!	!	!	!LO:LB:g=original	!
=95-	=95	=95	=95	=95	=95	=95	=95
.	.	2rF	.	0ra	.	1g	.
2E\	.	1c	Nos	.	.	.	.
=96	=96	=96-	=96	=96	=96	=96-	=96
2F,<\	-mus	.	.	.	.	1a	-mus
1F	nos	2F/	qui	.	.	.	.
=97-	=97	=97	=97	=97-	=97	=97	=97
.	.	2c\	Cae-	2rf	.	2r	.
2BB-/	qui	2d\	-lo	1f\	Nos	2b-\	qui
=98	=98	=98-	=98	=98-	=98	=98-	=98
2F\	Cae-	2c\	e-	.	.	2a\	e-
2G\	-lo	2B-\	-xu-	2B-/	qui	2b-\	-xu-
=99-	=99	=99	=99	=99	=99	=99	=99
2F\	e-	4A/	-la-	2f\	Cae-	1cc	-la-
.	.	4F/	.	.	.	.	.
2E-X\	-xu-	2c\	.	2g\	-lo	.	.
=100	=100	=100	=100	=100	=100	=100-	=100
4D/	-la-	1B-	.	2.f\	e-	1f	-mus
4BB-/	.	.	.	.	.	.	.
1B-	.	.	.	.	.	.	.
.	.	.	.	4f\	-xu-	.	.
=101-	=101	=101-	=101	=101-	=101	=101	=101
.	.	1c	.	2e-X\	-la-	1ra	.
2A\	.	.	.	2c/	.	.	.
!LO:LB:g=original	!	!	!	!	!	!	!
=102	=102	=102-	=102	=102	=102	=102-	=102
2B-\	-mus	1B-	-mus	1d	.	2dd\	pi-
2G\	pi-	.	.	.	.	2dd\	-a
=103	=103	=103	=103	=103-	=103	=103	=103
2G\	-a	0r	.	2.B-/	-mus	2ee\	Vir-
2A\	vir-	.	.	.	.	2cc\	-go
!	!	!	!	!LO:N:vis=2	!	!	!
.	.	.	.	4rA	.	.	.
!	!	!	!	!LO:LB:g=original	!	!	!
=104	=104	=104	=104	=104	=104	=104-	=104
2F\	-go	.	.	0rA	.	2.ff\	e-
2.B-\	e-	.	.	.	.	.	.
.	.	.	.	.	.	4ee\	.
=105-	=105	=105-	=105	=105	=105	=105	=105
.	.	2rc	.	.	.	2dd\	.
4A\	.	.	.	.	.	.	.
4G\	.	2d\	pi-	.	.	2.gg\	.
4A\	.	.	.	.	.	.	.
=106	=106	=106	=106	=106	=106	=106	=106
4B-\	.	2d\	-a	2rf	.	.	.
4G\	.	.	.	.	.	4ff\	.
2.c\	.	2e\	Vir-	2g\	pi-	2.ee\	.
=107-	=107	=107-	=107	=107-	=107	=107-	=107
.	.	2c\	-go	2g\	-a	.	.
4B-\	.	.	.	.	.	4ee\	-ri-
4A\	.	2.f\	e-	1a	Vir-	2cc\	-ge
4B-\	.	.	.	.	.	.	.
=108	=108	=108-	=108	=108-	=108	=108	=108
!	!	!	!	!	!	!LO:TX:a:t=iedna	!
4c\	.	.	.	.	.	1r	.
4A\	.	4e\	.	.	.	.	.
1B-	.	4d\	.	2f\	-go	.	.
.	.	4e\	.	.	.	.	.
!	!	!	!	!	!	!LO:PB:g=original	!
=109-	=109	=109	=109	=109	=109	=109	=109
.	.	4f\	.	2.b-X\	e-	2rcc	.
.	.	4d\	.	.	.	.	.
2G\	.	2g\	.	.	.	1dd	pi-
.	.	.	.	8a\L	.	.	.
.	.	.	.	8g\J	.	.	.
!	!	!LO:LB:g=original	!	!	!	!	!
=110	=110	=110	=110	=110	=110	=110-	=110
1.d	.	2f#X\	.	2a\	.	.	.
.	.	1g	.	2b-X\	.	1dd	-a
=111-	=111	=111-	=111	=111-	=111	=111-	=111
.	.	.	.	2.a\	.	.	.
2D/	.	2f#X\	-ri-	.	.	2dd\	Vir-
.	.	.	.	4a\	-ri-	.	.
=112	=112	=112	=112	=112	=112	=112	=112
2E-X\	.	2g\	-ge-	2g,<\	-ge	1b-	-go
2D/	.	1B-	-e-	2f\	e-	.	.
=113	=113	=113-	=113	=113-	=113	=113-	=113
2C/	.	.	.	2e-X\	.	2cc\	e-
2C/	-ri-	2A\	.	2e-\	-ri-	2cc\	-ri-
!LO:LB:g=original	!	!	!	!	!	!	!
=114	=114	=114	=114	=114-	=114	=114	=114
2BB-/	-ge	2B-\	.	2d\	-ge	1f	-ge
1F	e-	2A/	.	2r	.	.	.
=115-	=115	=115-	=115	=115	=115	=115	=115
.	.	2G/	.	2rA	.	1ra	.
2E\	-ri-	2G/	-ri-	1c	e-	.	.
=116-	=116	=116-	=116	=116-	=116	=116-	=116
0F	-ge	0A	-ge	.	.	2f/	Tu
.	.	.	.	2c/	-ri-	(4f/	a-
.	.	.	.	.	.	4g/)	.
=117-	=117	=117-	=117	=117-	=117	=117	=117
.	.	.	.	1c	-ge	2a\	-pre-
.	.	.	.	.	.	2f/	-ce
=118	=118	=118	=118	=118	=118	=118-	=118
!	!	!	!	!LO:TX:a:t=7	!	!	!
1rE	.	00r	.	00r	.	2a\	ne
.	.	.	.	.	.	2b-\	ca-
=119-	=119	=119	=119	=119	=119	=119	=119
2C/	tu-	.	.	.	.	2cc\	-da-
(4C/	-a	.	.	.	.	2g/	.
4D/)	.	.	.	.	.	.	.
=120	=120	=120	=120	=120	=120	=120	=120
2E\	pre-	.	.	.	.	4e/	.
.	.	.	.	.	.	4c/	.
2C/	-ce	.	.	.	.	2cc\	.
=121-	=121	=121	=121	=121	=121	=121	=121
2D\	ne	.	.	.	.	2b-\	.
2E\	ca-	.	.	.	.	2g/	.
!	!	!	!	!	!	!LO:LB:g=original	!
=122	=122	=122-	=122	=122	=122	=122	=122
2.F\	-da-	2F/	Tu-	0r	.	2.f/	.
.	.	(4F/	-a	.	.	.	.
4C/	.	4G/)	.	.	.	4e/	.
=123	=123	=123	=123	=123	=123	=123	=123
4AA/	.	2A/	pre-	.	.	4f/	.
4FF/	.	.	.	.	.	4g/	.
1F	.	2F/	-ce	.	.	4a/	.
.	.	.	.	.	.	4g/	.
=124-	=124	=124	=124	=124	=124	=124-	=124
.	.	2A\	ne	1r	.	1f	-mus
2D/	.	2B-\	ca-	.	.	.	.
!	!	!	!	!LO:PB:g=original	!	!	!
=125	=125	=125	=125	=125	=125	=125	=125
0C	-mus	2.c\	-da-	2c/	Tu-	0ra	.
.	.	.	.	(4c/	-a	.	.
.	.	4G/	.	4d/)	.	.	.
=126-	=126	=126	=126	=126	=126	=126	=126
.	.	4E/	.	2e\	pre-	.	.
.	.	4C/	.	.	.	.	.
.	.	2c\	.	2c/	-ce	.	.
=127	=127	=127	=127	=127	=127	=127	=127
1rE	.	2B-\	.	2d\	ne	1ra	.
!	!	!LO:LB:g=original	!	!	!	!	!
.	.	2G/	.	2e\	ca-	.	.
=128-	=128	=128	=128	=128-	=128	=128-	=128
2F\	ne	2F/	.	2f\	-da-	2rcc	.
2E\	ca-	2G/	.	2c/	.	1cc	ne
=129	=129	=129-	=129	=129	=129	=129-	=129
2F\	-da-	1F	-mus	4A/	.	.	.
.	.	.	.	4F/	.	.	.
2D/	.	.	.	1f	.	2b#X\	ca-
=130	=130	=130	=130	=130-	=130	=130	=130
2C/	-mus	0rA	.	.	.	2cc\	-da-
!LO:PB:g=original	!	!	!	!	!	!	!
1c	ne	.	.	(2e\	.	2g/	-mus
=131-	=131	=131	=131	=131	=131	=131-	=131
.	.	.	.	2c/,<)	-mus	2ee-X\	ne
2B#X\	ca-	.	.	1g	ne	2dd\	ca-
=132	=132	=132-	=132	=132-	=132	=132	=132
2c\	-da-	2rF	.	.	.	2ee\	-da-
2A-X\	.	1c	ne	2f\	ca-	2cc\	-mus
=133-	=133	=133-	=133	=133	=133	=133-	=133
1G	-mus	.	.	1g	-da-	2rcc	.
.	.	2B#X\	ca-	.	.	2gg\	ca-
=134	=134	=134	=134	=134	=134	=134	=134
1rE	.	1c	-da-	2g\	-mus	2ee-X\	-da-
.	.	.	.	1g	ne-	2cc\	-mus
=135-	=135	=135-	=135	=135-	=135	=135-	=135
2rC	.	1G	-mus	.	.	1b-	greſ-
1E	greſ-	.	.	2g\	-ca-	.	.
=136-	=136	=136	=136	=136-	=136	=136-	=136
.	.	1rA	.	2e-X\	-da-	1cc	-sus
1F	-sus	.	.	2c/	-mus	.	.
!	!	!	!	!LO:LB:g=original	!	!	!
=137-	=137	=137	=137	=137	=137	=137-	=137
.	.	2F/	greſ-	1rc	.	1dd	no-
1G	no-	2B-\	-sus	.	.	.	.
!	!	!	!	!	!	!LO:LB:g=original	!
=138-	=138	=138	=138	=138	=138	=138	=138
.	.	2G/	no-	2B-/	greſ-	1ee-X	-ſtros
1A-X	-ſtros	2c\	-ſtros	2e-X\	-sus	.	.
=139-	=139	=139-	=139	=139-	=139	=139-	=139
.	.	2A/	no-	2c/	no-	1ff	di-
1B-	di-	2d\	.	2f\	-ſtros	.	.
=140-	=140	=140-	=140	=140	=140	=140	=140
.	.	2B-\	-ſtros	2d\	di-	2gg\	.
2c\	.	2r	.	4g\	.	1ee-X	.
.	.	.	.	4e-X\	.	.	.
=141	=141	=141	=141	=141	=141	=141-	=141
2.B-\	.	2rc	.	2.f\	.	.	.
.	.	1B-	di-	.	.	2dd\	.
4A\	.	.	.	4f\	-ri-	.	.
=142	=142	=142-	=142	=142-	=142	=142	=142
4G\	.	.	.	2g\	-ge	2ee\	-ri-
4E\	.	.	.	.	.	.	.
1A-X	.	2c\	.	2rf	.	2cc\	-ge
!	!	!LO:LB:g=original	!	!	!	!	!
=143-	=143	=143	=143	=143	=143	=143-	=143
.	.	2d\	.	0ra	.	1b-	.
2G\	.	1e-X	.	.	.	.	.
=144	=144	=144-	=144	=144	=144	=144-	=144
2F\	-ri-	.	.	.	.	1a-X	di-
2F\	-ge	2d\	.	.	.	.	.
=145-	=145	=145	=145	=145-	=145	=145	=145
2E-X,<\	.	(2e\	-ri-	2r	.	2g/	.
2BB-/	greſ-	2d\)	.	1B-	greſ-	2f/	-ri-
!LO:LB:g=original	!	!	!	!	!	!	!
=146	=146	=146-	=146	=146-	=146	=146-	=146
2E-X\	-sus	1e-X	-ge	.	.	1e-X	-ge
2C/	no-	.	.	1c	-sus	.	.
=147-	=147	=147	=147	=147-	=147	=147	=147
!	!	!	!	!	!	!LO:TX:a:t=1.	!
2F\	-ſtros	2r	.	.	.	1r	.
2D\	greſ-	2F/	greſ-	1d	no-	.	.
=148	=148	=148-	=148	=148-	=148	=148-	=148
2G\	-sus	2B-X\	-sus	.	.	2b-\	ne
2E-X\	no-	2G/	no-	1e	-ſtros	2ee-X\	ca-
=149-	=149	=149	=149	=149-	=149	=149	=149
2A-X\	-ſtros	1c	.	.	.	2cc\	-da-
2F\	di-	.	.	1f	di-	2a-X\	-mus
=150	=150	=150-	=150	=150-	=150	=150	=150
2.B-\	.	1B-,<	-ſtros	.	.	1ra	.
.	.	.	.	2g\	.	.	.
4B-\	-ri-	.	.	.	.	.	.
=151-	=151	=151	=151	=151	=151	=151-	=151
2B-\	-ge	1F	greſ-	2f\	-ri-	2rf	.
1BB-	greſ-	.	.	2f\	-ge	2f/	greſ-
!	!	!	!	!LO:LB:g=original	!	!	!
=152-	=152	=152-	=152	=152	=152	=152	=152
.	.	1G	-sus	2B-/	greſ-	2b-\	-sus
1C	-sus	.	.	2e-X\	-sus	2g/	no-
!	!	!	!	!	!	!LO:LB:g=original	!
=153-	=153	=153-	=153	=153	=153	=153	=153
.	.	1A	no-	2c\	no-	2cc\	-ſtros
1D	no-	.	.	2f\	-ſtros	2a\	greſ-
=154-	=154	=154-	=154	=154-	=154	=154	=154
.	.	1B-	-ſtros	2d\	greſ-	2dd\	-sus
1E-X	-ſtros	.	.	2g\	-sus	2b-\	no-
=155-	=155	=155	=155	=155	=155	=155	=155
.	.	1c	di-	4e-X\	no-	2ee-X\	-ſtros
.	.	.	.	4c\	-ſtros	.	.
1F	di-	.	.	2.f\	di-	2cc\	di-
=156-	=156	=156-	=156	=156-	=156	=156-	=156
.	.	2d\	.	.	.	2ff\	.
.	.	.	.	4f\	-ri-	.	.
2G\	.	1B-	.	2d\	-ge	2b-\	.
=157	=157	=157-	=157	=157	=157	=157	=157
2.F\	.	.	.	2rA	.	2.cc\	.
.	.	2A/	-ri-	1f	ne	.	.
4E-X\	.	.	.	.	.	4cc\	-ri-
!	!	!LO:PB:g=original	!	!	!	!	!
=158	=158	=158	=158	=158-	=158	=158	=158
4D\	.	2B-\	-ge	.	.	2b-,<\	-ge
4BB-/	.	.	.	.	.	.	.
1E-X	.	2B-\	di-	2g\	ca-	2g\	di-
=159-	=159	=159	=159	=159	=159	=159	=159
.	.	2c\	.	1f	-da-	2a\	.
2D/	.	2d\	.	.	.	1b-	.
!LO:LB:g=original	!	!	!	!	!	!	!
=160	=160	=160	=160	=160-	=160	=160-	=160
2C/	.	2G/	-ri-	1e-X	.	.	.
2C/	-ri-	2c\	.	.	.	2a\	-ri-
=161	=161	=161-	=161	=161-	=161	=161	=161
2BB-/	-ge	2F/	-ge	1d	.	2b-,<\	-ge
1B-	ne	2rF	.	.	.	2dd\	ne
=162-	=162	=162	=162	=162-	=162	=162-	=162
.	.	2rA	.	1c	.	2ee-X\	ca-
2A\	ca-	1f	ne	.	.	2cc\	-da-
=163	=163	=163-	=163	=163-	=163	=163	=163
2B-\	-da-	.	.	2B-/	-mus	2dd\	.
2A\	.	2f\	ca-	1f	greſ-	2cc\	.
=164-	=164	=164	=164	=164-	=164	=164-	=164
1G	.	2d\	-da-	.	.	1b-	-mus
.	.	2B-\	-mus	2e-\	-sus	.	.
!	!	!	!	!LO:LB:g=original	!	!LO:LB:g=original	!
=165	=165	=165	=165	=165	=165	=165	=165
2F,<\	-mus	1rA	.	2f\	no-	2a\	greſ-
1F	greſ-	.	.	2c/	-ſtros	2a\	-sus
=166-	=166	=166	=166	=166	=166	=166	=166
.	.	2rF	.	2.g\	di-	2b-\	no-
2E\	-sus	1c	greſ-	.	.	2g/	-ſtros
.	.	.	.	4g\	-ri-	.	.
=167	=167	=167-	=167	=167-	=167	=167-	=167
2F\	no-	.	.	2f\	-ge	2a\	di-
2D/	-ſtros	2B#X\	-sus	2rf	.	2f/	.
=168	=168	=168	=168	=168	=168	=168	=168
2C/	di-	2c\	no-	2r	.	2e/	.
2D/	.	2A/	-ſtros	1f	greſ-	2f/	.
=169-	=169	=169	=169	=169-	=169	=169-	=169
*	*	*	*ij	*	*	*	*
2.C/	.	2.c\	greſ-	.	.	2g/	.
.	.	.	.	2e\	-sus	2g/	-ri-
4BB-/	.	4c\	-sus	.	.	.	.
=170	=170	=170	=170	=170	=170	=170	=170
4AA/	.	2c\	no-	2f\	no-	2a\	-ge
4FF/	.	.	.	.	.	.	.
1BB-	.	2d\	-ſtros	2d\	-ſtros	2f/	di-
*	*	*	*Xij	*	*	*	*
!	!	!LO:LB:g=original	!	!	!	!	!
=171-	=171	=171	=171	=171	=171	=171	=171
.	.	2.c\	di-	2e\	di-	2g/	.
2AA/	.	.	.	1f	.	1a	.
.	.	4c\	-ri-	.	.	.	.
=172	=172	=172	=172	=172-	=172	=172-	=172
1.C	.	2A/	-ge	.	.	.	.
.	.	1c	di-	1f	.	1g	.
=173-	=173	=173-	=173	=173-	=173	=173-	=173
.	.	.	.	.	.	.	.
2C/	-ri-	2c\	-ri-	2e\	-ri-	2g/	-ri-
=174-	=174	=174-	=174	=174	=174	=174-	=174
0GG	-ge	0c	-ge	0f	-ge	0g	-ge
=175-	=175	=175-	=175	=175-	=175	=175-	=175
.	.	.	.	.	.	.	.
==	==	==	==	==	==	==	==
*-	*-	*-	*-	*-	*-	*-	*-
!!!system-decoration: [(s1,s2,s3,s4)]
!!!RDF**kern: < = below
!!!ENC: Marta Lawrence
!!!END: 2020-02-21
!!!ENC: Berenika Jozajtis
!!!END: 2021-02-09
